!!!COM: Clementi, Muzio
!!!CDT: 1752/01/23/-1832/03/10/
!!!ODT: ~1800///
!!!OTL: Sonata No. 3 in C Major, Op. 36, Mvmt. 3
!!!OPS: Op. 36
!!!ONM: No. 3
!!!OMV: 3. Allegro
**kern	**kern	**dynam
*staff2	*staff1	*staff1/2
*Ipiano	*Ipiano	*Ipiano
*clefG2	*clefG2	*clefG2
*k[]	*k[]	*k[]
*C:	*C:	*C:
*M2/4	*M2/4	*M2/4
*MM132	*MM132	*MM132
=1-	=1-	=1-
8c/ 8e/L	4.cc\	.
8c/ 8e/	.	.
8c/ 8e/	.	.
8c/ 8e/J	8ee\	.
=2	=2	=2
8c/ 8f/L	16dd\LL	.
.	16cc\	.
8c/ 8f/	16b\	.
.	16dd\JJ	.
8c/ 8e/	8cc'\	.
8c/ 8e/J	8r	.
=3	=3	=3
8c/ 8e/L	16cc\LL	.
.	16dd\	.
8c/ 8e/	16cc\	.
.	16b\JJ	.
8c/ 8e/	16cc\LL	.
.	16dd\	.
8c/ 8e/J	16ee\	.
.	16ff\JJ	.
=4	=4	=4
8c/ 8e/L	8gg'\L	.
8c/ 8e/	8gg'\	.
8c/ 8e/	8gg'\J	.
8c/ 8e/J	8r	.
=5	=5	=5
8c/ 8e/	16ccc\LL	.
.	16ddd\	.
8r	16eee\	.
.	16ddd\JJ	.
4r	16ccc\LL	.
.	16bb\	.
.	16aa\	.
.	16gg\JJ	.
=6	=6	=6
8B/ 8g/	16ff\LL	.
.	16bb\	.
8r	16ddd\	.
.	16ccc\JJ	.
4r	16bb\LL	.
.	16aa\	.
.	16gg\	.
.	16ff\JJ	.
=7	=7	=7
8c/ 8g/	16ee\LL	.
.	16gg\	.
8r	16ccc\	.
.	16bb\JJ	.
4r	16aa\LL	.
.	16gg\	.
.	16ff\	.
.	16ee\JJ	.
=8	=8	=8
16G/LL	8dd\	.
16B/	.	.
16d/	8r	.
16g/JJ	.	.
4r	16gg\LL	.
.	16ff\	.
.	16ee\	.
.	16dd\JJ	.
=9	=9	=9
8c/ 8e/L	4.cc\	.
8c/ 8e/	.	.
8c/ 8e/	.	.
8c/ 8e/J	8ee\	.
=10	=10	=10
8c/ 8f/L	16dd\LL	.
.	16cc\	.
8c/ 8f/	16b\	.
.	16dd\JJ	.
8c/ 8e/	8cc\	.
8c/ 8e/J	8r	.
=11	=11	=11
8c/ 8e/L	16cc\LL	.
.	16dd\	.
8c/ 8e/	16cc\	.
.	16b\JJ	.
8c/ 8e/	16cc\LL	.
.	16dd\	.
8c/ 8e/J	16ee\	.
.	16ff\JJ	.
=12	=12	=12
8c/ 8e/L	8gg\L	.
8c/ 8e/	8gg\	.
8c/ 8e/	8gg\J	.
8c/ 8e/J	8r	.
=13	=13	=13
8c/ 8e/	16ccc\LL	.
.	16ddd\	.
8r	16eee\	.
.	16ddd\JJ	.
4r	16ccc\LL	.
.	16bb\	.
.	16aa\	.
.	16gg#\JJ	.
*clefF4	*	*
=14	=14	=14
8F\ 8f\	16aa\LL	.
.	16bb\	.
8r	16ccc\	.
.	16bb\JJ	.
4r	16aa\LL	.
.	16ggn\	.
.	16ff\	.
.	16ee\JJ	.
=15	=15	=15
8G\ 8B\	16dd\LL	.
.	16cc\	.
8r	16b\	.
.	16a\JJ	.
4r	16g/LL	.
.	16f/	.
.	16e/	.
.	16d/JJ	.
=16	=16	=16
8C\L	8c/	.
8E\ 8G\	8r	.
8E\ 8G\	4r	.
8E\ 8G\J	.	.
=17	=17	=17
8BB\L	4.g/	.
8D\ 8G\	.	.
8D\ 8G\	.	.
8D\ 8G\J	8g/	p
=18	=18	=18
8C\L	16a/LL	.
.	16g/	.
8E\ 8G\	16f/	.
.	16e/JJ	.
8E\ 8G\	4e/	.
8E\ 8G\J	.	.
=19	=19	=19
8BB\L	8d''/L	.
8D\ 8G\	(16d/L	.
.	16e/JJ)	.
8D\ 8G\	8f''/L	.
8D\ 8G\J	8g''/J	.
=20	=20	=20
8C\L	(4f/	.
8E\ 8G\	.	.
8E\ 8G\	8e''/)	.
8E\ 8G\J	8r	.
=21	=21	=21
8BB\L	4.g/	.
8D\ 8G\	.	.
8D\ 8G\	.	.
8D\ 8G\J	8g/	p
=22	=22	=22
8C\L	16a/LL	.
.	16g/	.
8E\ 8G\	16f/	.
.	16e/JJ	.
8E\ 8G\	4ee\	.
8E\ 8G\J	.	.
=23	=23	=23
8D\L	8f#''/L	.
8A\ 8c\	(16f#/L	.
.	16g/JJ)	.
8A\ 8c\	8a''\L	.
8A\ 8c\J	8dd''\J	.
=24	=24	=24
8G\L	8g''/	.
8B\ 8d\J	8r	.
8B\ 8d\L	4r	.
8B\ 8d\J	.	.
=25	=25	=25
8F#\L	16dd\LL	.
.	16ddd\	.
8A\ 8d\	16dd\	.
.	16ddd\JJ	.
8A\ 8d\	8dd\L	.
8A\ 8d\J	8dd\J	.
=26	=26	=26
8G\L	16ee\LL	p
.	16dd\	.
8B\ 8d\	16cc\	.
.	16b\JJ	.
8B\ 8d\	4b\	.
8B\ 8d\J	.	.
=27	=27	=27
8F#\L	8a/L	.
8A\ 8d\	16a/L	.
.	16b/JJ	.
8A\ 8d\	8cc''\L	.
8A\ 8d\J	8dd''\J	.
=28	=28	=28
8G\L	4cc''\	.
8B\ 8d\	.	.
8B\ 8d\	8b''\	.
8B\ 8d\J	8r	.
=29	=29	=29
8F#\L	16ddd\LL	f
.	16dd\	.
8A\ 8d\	16ddd\	.
.	16dd\JJ	.
8A\ 8d\	8ddd\L	.
8A\ 8d\J	8ddd\J	.
=30	=30	=30
8G\ 8B\ 8d\	16ddd\LL	.
.	16eee\	.
8r	16ddd\	.
.	16ccc\JJ	.
4r	16bb\LL	.
.	16ccc\	.
.	16bb\	.
.	16aa\JJ	.
*clefG2	*	*
=31	=31	=31
8e/ 8g/	16gg\LL	.
.	16aa\	.
8r	16gg\	.
.	16ff#\JJ	.
8c/ 8e/	16gg\LL	.
.	16aa\	.
8r	16gg\	.
.	16ff#\JJ	.
=32	=32	=32
8B/ 8d/	16gg\LL	.
.	16aa\	.
8r	16bb\	.
.	16ccc\JJ	.
4r	16ddd\LL	.
.	16ccc\	.
.	16bb\	.
.	16aa\JJ	.
=33	=33	=33
8e/ 8g/	16gg\LL	.
.	16aa\	.
8r	16gg\	.
.	16ff#\JJ	.
8c/ 8e/	16gg\LL	.
.	16aa\	.
8r	16gg\	.
.	16ff#\JJ	.
=34	=34	=34
8B/ 8d/	16gg\LL	.
.	16aa\	.
8r	16bb\	.
.	16ccc\JJ	.
4r	16ddd\LL	.
.	16ccc\	.
.	16bb\	.
.	16aa\JJ	.
*clefF4	*	*
=35	=35	=35
8E'\ 8G'\	16gg\LL	.
.	16aa\	.
8r	16gg\	.
.	16ff#\JJ	.
8C'\ 8E'\	16gg\LL	.
.	16aa\	.
8r	16gg\	.
.	16ff#\JJ	.
=36	=36	=36
8BB/ 8D/	16gg\LL	.
.	16bb\	.
8r	16gg\	.
.	16dd\JJ	.
8BB\ 8D\ 8G\	16dd\LL	.
.	16gg\	.
8r	16dd\	.
.	16b\JJ	.
=37	=37	=37
8BB\ 8D\ 8G\	16b\LL	.
.	16dd\	.
8r	16b\	.
.	16g\JJ	.
8BB\ 8D\ 8G\	16g/LL	.
.	16b/	.
8r	16g/	.
.	16d/JJ	.
=38	=38	=38
8C\ 8G\	8e/	.
8r	8r	.
8C\ 8A\	16cc\LL	.
.	16ee\	.
8r	16cc\	.
.	16a\JJ	.
=39	=39	=39
8D\ 8B\	8g/L	.
8r	8g/J	.
8D\ 8c\	16a/LL	.
.	16cc/	.
8r	16a/	.
.	16f#/JJ	.
=40	=40	=40
2G\ 2B\	8g\L	.
.	8g\	.
.	8gg\	.
.	8gg\J	.
=41	=41	=41
2G\ 2c\	8a\L	.
.	8a\	.
.	8aa\	.
.	8aa\J	.
=42	=42	=42
2G\ 2d\	8b\L	p
.	8b\	.
.	8bb\	.
.	8bb\J	.
=43	=43	=43
2r	8r	.
.	(8g/L	.
.	8f#/	.
.	8g/J	.
=44	=44	=44
2r	8g#/L	.
.	8a/	.
.	8b-/	.
.	8bn/J)	.
*clefG2	*	*
=45	=45	=45
8c/ 8e/L	4.cc\	.
8c/ 8e/	.	.
8c/ 8e/	.	.
8c/ 8e/J	8ee\	.
=46	=46	=46
8c/ 8f/L	16dd\LL	.
.	16cc\	.
8c/ 8f/	16b\	.
.	16dd\JJ	.
8c/ 8e/	8cc\	.
8c/ 8e/J	8r	.
=47	=47	=47
8c/ 8e/L	16cc\LL	.
.	16dd\	.
8c/ 8e/	16cc\	.
.	16b\JJ	.
8c/ 8e/	16cc\LL	.
.	16dd\	.
8c/ 8e/J	16ee\	.
.	16ff\JJ	.
=48	=48	=48
8c/ 8e/L	8gg\L	.
8c/ 8e/	8gg\	.
8c/ 8e/	8gg\J	.
8c/ 8e/J	8r	.
=49	=49	=49
8c/ 8e/	16ccc\LL	.
.	16ddd\	.
8r	16eee\	.
.	16ddd\JJ	.
4r	16ccc\LL	.
.	16bb\	.
.	16aa\	.
.	16gg\JJ	.
=50	=50	=50
8B/ 8g/	16ff\LL	.
.	16bb\	.
8r	16ddd\	.
.	16ccc\JJ	.
4r	16bb\LL	.
.	16aa\	.
.	16gg\	.
.	16ff\JJ	.
=51	=51	=51
8c/ 8g/	16ee\LL	.
.	16gg\	.
8r	16ccc\	.
.	16bb\JJ	.
4r	16aa\LL	.
.	16gg\	.
.	16ff\	.
.	16ee\JJ	.
=52	=52	=52
16G/LL	8dd\	.
16B/	.	.
16d/	8r	.
16g/JJ	.	.
4r	16gg\LL	.
.	16ff\	.
.	16ee\	.
.	16dd\JJ	.
=53	=53	=53
8c/ 8e/L	4.cc\	.
8c/ 8e/	.	.
8c/ 8e/	.	.
8c/ 8e/J	8ee\	.
=54	=54	=54
8c/ 8f/L	16dd\LL	.
.	16cc\	.
8c/ 8f/	16b\	.
.	16dd\JJ	.
8c/ 8e/	8cc\	.
8c/ 8e/J	8r	.
=55	=55	=55
8c/ 8e/L	16cc\LL	.
.	16dd\	.
8c/ 8e/	16cc\	.
.	16b\JJ	.
8c/ 8e/	16cc\LL	.
.	16dd\	.
8c/ 8e/J	16ee\	.
.	16ff\JJ	.
=56	=56	=56
8c/ 8e/L	8gg\L	.
8c/ 8e/	8gg\	.
8c/ 8e/	8gg\J	.
8c/ 8e/J	8r	.
=57	=57	=57
8c/ 8e/	16ccc\LL	.
.	16ddd\	.
8r	16eee\	.
.	16ddd\JJ	.
4r	16ccc\LL	.
.	16bb\	.
.	16aa\	.
.	16gg#\JJ	.
*clefF4	*	*
=58	=58	=58
8F\ 8f\	16aa\LL	.
.	16bb\	.
8r	16ccc\	.
.	16bb\JJ	.
4r	16aa\LL	.
.	16ggn\	.
.	16ff\	.
.	16ee\JJ	.
=59	=59	=59
8G\ 8B\	16dd\LL	.
.	16cc\	.
8r	16b\	.
.	16a\JJ	.
4r	16g/LL	.
.	16f/	.
.	16e/	.
.	16d/JJ	.
=60	=60	=60
8C\L	8c/	.
8E\ 8G\	8r	.
8E\ 8G\	4r	.
8E\ 8G\J	.	.
=61	=61	=61
8BB\L	4.g/	.
8D\ 8G\	.	.
8D\ 8G\	.	.
8D\ 8G\J	8g/	p
=62	=62	=62
8C\L	16a/LL	.
.	16g/	.
8E\ 8G\	16f/	.
.	16e/JJ	.
8E\ 8G\	4e/	.
8E\ 8G\J	.	.
=63	=63	=63
8BB\L	8d'/L	.
8D\ 8G\	(16d/L	.
.	16e/JJ)	.
8D\ 8G\	8f'/L	.
8D\ 8G\J	8g/J	.
=64	=64	=64
8C\L	(4f/	.
8E\ 8G\	.	.
8E\ 8G\	8e'/)	.
8E\ 8G\J	8r	.
=65	=65	=65
8E\L	8cc'\L	.
8G\ 8c\	(16cc\L	.
.	16dd\JJ)	.
8G\ 8c\	8ee'\L	.
8G\ 8c\J	8cc'\J	.
=66	=66	=66
8F\L	8a\L	.
8A\ 8d\	(16aa\L	.
.	16ff\JJ)	.
8A\ 8d\	8dd\L	.
8A\ 8d\J	(16ff\L	.
.	16dd\JJ)	.
=67	=67	=67
8G\L	8b\L	.
8d\ 8f\	16dd\L	.
.	16b\JJ	.
8d\ 8f\	8g'/L	.
8d\ 8f\J	8b'/J	.
=68	=68	=68
8c\ 8e\	16cc\LL	.
.	16b\	.
8r	16cc\	.
.	16ee\JJ	.
4r	16dd\LL	.
.	16cc\	.
.	16b\	.
.	16a\JJ	.
=69	=69	=69
8BB\L	4.g/	.
8D\ 8G\	.	.
8D\ 8G\	.	.
8D\ 8G\J	8g/	.
=70	=70	=70
8C\L	16a/LL	.
.	16g/	.
8E\ 8G\	16f/	.
.	16e/JJ	.
8E\ 8G\	4e/	.
8E\ 8G\J	.	.
=71	=71	=71
8BB\L	8d'/L	.
8D\ 8G\	(16d/L	.
.	16e/JJ)	.
8D\ 8G\	8f'/L	.
8D\ 8G\J	8g'/J	.
=72	=72	=72
8C\L	(4f/	.
8E\ 8G\	.	.
8E\ 8G\	8e/)	.
8E\ 8G\J	8r	.
=73	=73	=73
8E\L	16cc\LL	.
.	16dd\	.
8G\ 8c\	16ee\	.
.	16ff\JJ	.
8G\ 8c\	16gg\LL	.
.	16aa\	.
8G\ 8c\J	16bb\	.
.	16ccc\JJ	.
=74	=74	=74
8F\L	8aa'\L	.
8A\ 8d\	(16aa\L	.
.	16ff\JJ)	.
8A\ 8d\	8dd'\L	.
8A\ 8d\J	(16ff\L	.
.	16dd\JJ)	.
=75	=75	=75
8G\L	8b'\L	.
8d\ 8f\	16dd\L	.
.	16b\JJ	.
8d\ 8f\	8g'/L	.
8d\ 8f\J	8b'/J	.
=76	=76	=76
8c\ 8e\	16cc\LL	.
.	16dd\	.
8r	16cc\	.
.	16b\JJ	.
4r	16cc\LL	p
.	16dd\	.
.	16cc\	.
.	16b\JJ	.
*clefG2	*	*
=77	=77	=77
8e'/ 8g'/	16cc\LL	.
.	16dd\	.
8r	16cc\	.
.	16b\JJ	.
8d'/ 8f'/	16cc\LL	.
.	16dd\	.
8r	16cc\	.
.	16b\JJ	.
=78	=78	=78
8c'/ 8e'/	16cc\LL	.
.	16dd\	.
8r	16cc\	.
.	16b\JJ	.
4r	16cc\LL	.
.	16dd\	.
.	16cc\	.
.	16b\JJ	.
*clefF4	*	*
=79	=79	=79
8E'\ 8G'\	16cc\LL	.
.	16dd\	.
8r	16cc\	.
.	16b\JJ	.
8D'\ 8F'\	16cc\LL	.
.	16dd\	.
8r	16cc\	.
.	16b\JJ	.
=80	=80	=80
8C'\ 8E'\	8cc\	.
8r	8r	.
4r	8r	.
.	16g/LL	f
.	16cc/JJ	.
=81	=81	=81
8C'\ 8E'\	8ee'\L	.
8r	16cc\L	.
.	16ee\JJ	.
8C'\ 8E'\	8gg'\L	.
8r	16ee\L	.
.	16gg\JJ	.
=82	=82	=82
8C'\ 8E'\	8ccc'\	.
8r	8r	.
4r	4r	.
==	==	==
*-	*-	*-
!!!ENC: Craig Stuart Sapp
!!!END: 2004/11/26/
